X: 33081
T: Primrose Lasses, The
R: reel
M: 4/4
K: Dmajor
|:g|faef d2 dB|ABde feeg|faef d2 dB|ABde fdd:|
g|fdad fdad|ABde feeg|fdad fdad|ABde fddg||
fdad fdad|ABde feeg|faef d2 dB|ABde fd d2|

